X: 1
T: MY PRETTY, FAIR MAID -- JIG
B: Ryan's Mammoth Collection of Fiddle Tunes
R: jig
M: 6/8
L: 1/8
Z: Contributed 20000830140948 by John Chambers John.Chambers:weema.com
K: G
 vB2d cAA | BGG cAA | B2d cAA | BGG G2g \
| B2d cAA | BGG cAA | B2d cAA | BGG G2g :|
|: vgeg fdf | ece dBG | geg fdf | ece d2g \
|   geg fdf | ece dBG | B2d cAA | BGG G2g "D.C."[|] :|
